X: 34929
T: Rocking The Boat
R: jig
M: 6/8
K: Amajor
AEE ABc|AEE ABc|AFF d2B|cBA BAF
AEE ABc AEE ABc e2c e2c BAF FEF:|
cde aA2|ecA FEF|cde aA2|ecA FEF
cde aA2|eca FEF|e2c e2c|BAF FEF:|

